public/images/logos/airbus.svg

<svg width="399" height="74" viewBox="0 0 399 74" fill="none" xmlns="http://www.w3.org/2000/svg">
<path d="M120.15 1.51132V72.3723H137.408V16.8253H156.929C164.156 16.8253 166.744 20.926 166.744 25.671C166.744 30.525 164.047 34.5148 156.82 34.5148H140.103L163.832 72.3718H183.463C183.463 72.3718 167.284 46.9188 167.393 46.9188C177.425 44.5468 183.895 37.5351 183.895 25.2388C183.895 11.7568 175.05 1.50982 156.823 1.50982L120.15 1.51132ZM91.2441 1.5106H108.502V72.3746H91.2441V1.5106ZM47.1301 45.6246H32.6071L43.3541 23.8376H43.5711L67.7311 72.3736H87.5771L51.4441 1.5106H36.1291L-0.00390625 72.3736H19.4101L25.2631 60.5096H54.3561L47.1301 45.6246ZM192.09 1.5116V72.3726H234.051C248.719 72.3726 258.319 64.4989 258.319 52.5266C258.318 44.2226 253.681 37.9676 246.885 35.5946C252.387 32.5736 255.299 27.7194 255.299 20.6006C255.299 9.1676 246.777 1.5106 232.432 1.5106L192.09 1.5116ZM209.35 16.5036H232.432C235.884 16.5036 238.58 19.1995 238.58 22.7595C238.58 26.3195 235.884 29.0154 232.323 29.0154H209.35L209.35 16.5036ZM209.35 43.1426H232.864C237.071 43.1426 240.307 46.1637 240.307 50.2617C240.308 54.4677 237.071 57.5957 232.864 57.5957H209.35V43.1426ZM312.79 41.095C312.79 51.851 307.828 57.813 298.014 57.813C288.307 57.813 283.345 51.851 283.345 41.095V1.511H265.657V39.801C265.657 61.697 277.198 73.885 298.014 73.885C318.83 73.885 330.479 61.697 330.479 39.801V1.511H312.79V41.095ZM367.799 0C349.57 0 339.322 9.0611 339.322 21.248C339.322 34.362 346.975 39.69 364.56 43.467C378.25 46.485 381.169 48.3683 381.169 52.2033C381.169 56.3693 377.394 58.2443 369.952 58.2443C359.166 58.2443 349.406 55.625 341.587 51.342L336.302 66.442C344.823 70.972 357.549 73.8854 370.384 73.8854C388.289 73.8854 398.966 65.5787 398.966 51.6644C398.968 40.5014 391.745 33.3304 376.532 29.6624C360.149 25.6734 356.581 25.2928 356.581 20.6019C356.581 16.9729 360.678 15.2074 367.581 15.2074C376.749 15.2074 386.512 17.5092 392.065 20.9262L397.565 6.4732C390.447 2.6982 379.985 0.0005 367.797 0.0005L367.799 0Z" fill="#00205B"/>
</svg>

<svg xmlns="http://www.w3.org/2000/svg" width="399" height="74" fill="none"><path fill="#00205B" d="M120.15 1.511v70.861h17.258V16.825h19.521c7.227 0 9.815 4.101 9.815 8.846 0 4.854-2.697 8.844-9.924 8.844h-16.717l23.729 37.857h19.631s-16.179-25.453-16.07-25.453c10.032-2.372 16.502-9.384 16.502-21.68 0-13.482-8.845-23.73-27.072-23.73l-36.673.002Zm-28.906 0h17.258v70.864H91.244V1.51ZM47.13 45.625H32.607l10.747-21.787h.217l24.16 48.536h19.846L51.444 1.51H36.13L-.004 72.374H19.41l5.853-11.864h29.093L47.13 45.625ZM192.09 1.512v70.86h41.961c14.668 0 24.268-7.873 24.268-19.845-.001-8.304-4.638-14.56-11.434-16.932 5.502-3.021 8.414-7.876 8.414-14.994 0-11.433-8.522-19.09-22.867-19.09H192.09Zm17.26 14.992h23.082c3.452 0 6.148 2.695 6.148 6.255s-2.696 6.256-6.257 6.256H209.35V16.504Zm0 26.639h23.514c4.207 0 7.443 3.02 7.443 7.119.001 4.206-3.236 7.334-7.443 7.334H209.35V43.143Zm103.44-2.048c0 10.756-4.962 16.718-14.776 16.718-9.707 0-14.669-5.962-14.669-16.718V1.511h-17.688v38.29c0 21.896 11.541 34.084 32.357 34.084s32.465-12.188 32.465-34.084V1.511H312.79v39.584ZM367.799 0c-18.229 0-28.477 9.061-28.477 21.248 0 13.114 7.653 18.442 25.238 22.219 13.69 3.018 16.609 4.901 16.609 8.736 0 4.166-3.775 6.041-11.217 6.041-10.786 0-20.546-2.619-28.365-6.902l-5.285 15.1c8.521 4.53 21.247 7.443 34.082 7.443 17.905 0 28.582-8.306 28.582-22.22.002-11.164-7.221-18.335-22.434-22.003-16.383-3.989-19.951-4.37-19.951-9.06 0-3.63 4.097-5.395 11-5.395 9.168 0 18.931 2.302 24.484 5.72l5.5-14.454C390.447 2.698 379.985 0 367.797 0h.002Z"/></svg>
